X:1
T:Lazarus
M:2/4
L:1/8
K:C
 CD F| G3 F| DF-F C| FF F3/2 G/2| A4| AC/2-E/2F-F| G3 F| DF-FC/2-D/2|\
 F3A/2-G/2|F-D C2| C||

